src/public/assets/tokens/jkrw.svg

<svg width="24" height="24" viewBox="0 0 24 24" fill="none" xmlns="http://www.w3.org/2000/svg">
<path fill-rule="evenodd" clip-rule="evenodd" d="M12.0285 4.00582C11.5255 3.95209 11.0531 4.28652 10.9456 4.79224L9.92433 9.59399H7.57219L6.55096 4.79224C6.43609 4.25211 5.9051 3.90737 5.36496 4.02224C4.82483 4.13712 4.48009 4.66811 4.59496 5.20824L5.52772 9.59399H3C2.44772 9.59399 2 10.0417 2 10.594C2 11.1463 2.44772 11.594 3 11.594H5.95308L6.37844 13.594H3C2.44772 13.594 2 14.0417 2 14.594C2 15.1463 2.44772 15.594 3 15.594H6.80379L7.66608 19.6484C7.77358 20.1539 8.24548 20.4882 8.74827 20.4349C9.25105 20.4882 9.72294 20.1539 9.83044 19.6484L10.6927 15.594H13.3643L14.2266 19.6484C14.3342 20.154 14.8063 20.4884 15.3093 20.4349C15.8123 20.4884 16.2844 20.154 16.392 19.6484L17.2543 15.594H21.071C21.6233 15.594 22.071 15.1463 22.071 14.594C22.071 14.0417 21.6233 13.594 21.071 13.594H17.6796L18.105 11.594H21.071C21.6233 11.594 22.071 11.1463 22.071 10.594C22.071 10.0417 21.6233 9.59399 21.071 9.59399H18.5303L19.4631 5.20824C19.578 4.66811 19.2332 4.13712 18.6931 4.02224C18.153 3.90737 17.622 4.25211 17.5071 4.79224L16.4859 9.59399H14.1327L13.1115 4.79224C13.004 4.28653 12.5316 3.95209 12.0285 4.00582ZM15.6351 13.594L16.0605 11.594H14.5581L14.9835 13.594H15.6351ZM12.939 13.594L12.5136 11.594H11.5435L11.1181 13.594H12.939ZM9.07362 13.594L9.49898 11.594H7.99755L8.42291 13.594H9.07362ZM12.0883 9.59399L12.0285 9.31315L11.9688 9.59399H12.0883Z" fill="#0050db"/>
</svg>

<svg id="Слой_1" data-name="Слой 1" xmlns="http://www.w3.org/2000/svg" viewBox="0 0 24 24"><title>JKRWМонтажная область 1</title><path d="M21.07,13.59H17.68l.42-2h3a1,1,0,0,0,0-2H18.53l.93-4.38a1,1,0,1,0-1.95-.42l-1,4.8H14.13l-1-4.8A1,1,0,0,0,12,4,1,1,0,0,0,11,4.79l-1,4.8H7.57l-1-4.8a1,1,0,0,0-2,.42l.94,4.38H3a1,1,0,0,0,0,2H6l.43,2H3a1,1,0,0,0,0,2H6.8l.87,4.06a1,1,0,0,0,1.08.78,1,1,0,0,0,1.08-.78l.86-4.06h2.67l.87,4.06a1,1,0,0,0,1.08.78,1,1,0,0,0,1.08-.78l.86-4.06h3.82a1,1,0,0,0,0-2Zm-12,0H8.42l-.42-2H9.5Zm3-4.28.06.28H12Zm-.91,4.28.42-2h1l.43,2Zm4.52,0H15l-.42-2h1.5Z"/></svg>
